images/people/people-23.svg

<?xml version="1.0" standalone="no"?><!DOCTYPE svg PUBLIC "-//W3C//DTD SVG 1.1//EN" "http://www.w3.org/Graphics/SVG/1.1/DTD/svg11.dtd"><svg width="120px" height="192px" version="1.1" xmlns="http://www.w3.org/2000/svg" xmlns:xlink="http://www.w3.org/1999/xlink" xml:space="preserve" style="fill-rule:evenodd;clip-rule:evenodd;stroke-linejoin:round;stroke-miterlimit:1.41421;"><g><g id="people-23" transform="matrix(1,0,0,1,-581.06,-48)"><g transform="matrix(1,0,0,1,0,-12)"><path d="M660.987,209.8l-3.961,1.396l-15.004,-36.722l3.79,-2.099l15.175,37.425Z" style="fill:#c1beba;fill-rule:nonzero;"/></g><g transform="matrix(1,0,0,1,0,-12)"><path d="M611.173,169.83l-1.037,5.519l1.428,7.046l2.572,-1.444l-0.736,-6.06l0.17,1.837l2.392,-0.594l-2.019,-4.489l-2.77,-1.815Z" style="fill:#e1c5b5;fill-rule:nonzero;"/></g><g transform="matrix(1,0,0,1,0,-12)"><path d="M618.904,137.247l4.798,-1.888l10.425,-0.406l-1.975,-8.332l-12.688,-0.233l-0.56,10.859Z" style="fill:#543e36;fill-rule:nonzero;"/></g><g transform="matrix(1,0,0,1,0,-12)"><path d="M632.616,233.534l0.853,6.195l-6.039,-0.155l-0.465,-6.658l5.651,0.618Z" style="fill:#988a74;fill-rule:nonzero;"/></g><g transform="matrix(1,0,0,1,0,-12)"><path d="M621.584,250.025l0.697,1.975l4.761,0l1.218,-9.001l-5.436,-1.141l-1.24,8.167Z" style="fill:#988a74;fill-rule:nonzero;"/></g><g transform="matrix(1,0,0,1,0,-12)"><path d="M619.843,135.302l2.554,-1.703l1.857,-5.265l4.292,1.223l1.361,3.346l2.942,1.47l-1.858,6.116l-8.748,0.233l-2.4,-5.42Z" style="fill:#ceab97;fill-rule:nonzero;"/></g><g transform="matrix(1,0,0,1,0,-12)"><path d="M624.164,132.086l3.864,0l4.162,-5.351l-0.744,-11.446l-7.423,-1.24l-4.614,1.835l0.149,10.851l4.606,5.351Z" style="fill:#e1c5b5;fill-rule:nonzero;"/></g><g transform="matrix(1,0,0,1,0,-12)"><path d="M618.257,143.295l-4.264,28.762l-3.05,-1.145l3.803,-32.068l3.511,4.451Z" style="fill:#e1c5b5;fill-rule:nonzero;"/></g><g transform="matrix(1,0,0,1,0,-12)"><path d="M625.28,110.664l8.583,2.708l4.72,23.372l-4.864,5.003l0.059,-5.574l-0.31,-1.646l-1.491,-7.529l-1.864,-9.501l-5.103,-2.083l0.27,-4.75Z" style="fill:#543e36;fill-rule:nonzero;"/></g><g transform="matrix(1,0,0,1,0,-12)"><path d="M625.097,115.414l-5.022,1.887l-0.588,22.196l-4.248,-0.749l0.832,-23.918l9.334,-4.25l-0.308,4.834Z" style="fill:#543e36;fill-rule:nonzero;"/></g><g transform="matrix(1,0,0,1,0,-12)"><path d="M627.121,196.062l0.929,46.917l-5.188,-1.083l-4.568,-45.989" style="fill:#e1c5b5;fill-rule:nonzero;"/></g><g transform="matrix(1,0,0,1,0,-12)"><path d="M626.965,179.494l0.156,19.819l0.736,33.835l4.759,0.386l2.324,-34.433l-7.975,-19.607Z" style="fill:#ceab97;fill-rule:nonzero;"/></g><g transform="matrix(1,0,0,1,0,-12)"><path d="M638.579,136.695l-5.701,-2.352l-2.274,5.603l-8.052,0.233l-2.709,-4.994l-5.189,3.563l3.485,4.605l1.434,17.397l-8.209,40.15l29.847,0.233l-7.89,-39.883l2.315,-20.374l2.943,-4.181Z" style="fill:#fec;fill-rule:nonzero;"/></g><g transform="matrix(1,0,0,1,0,-12)"><path d="M636.188,140.099l7.047,30.662l3.171,-0.902l-7.874,-33.155l-2.344,3.395Z" style="fill:#e1c5b5;fill-rule:nonzero;"/></g><g transform="matrix(1,0,0,1,0,-12)"><path d="M646.394,169.763l4.569,6.795l-1.953,3.734l-2.214,-5.479l-2.521,-0.983l-0.732,4.344l-2.312,-1.19l2.034,-6.265l3.129,-0.956Z" style="fill:#e1c5b5;fill-rule:nonzero;"/></g><g transform="matrix(1,0,0,1,0,-12)"><path d="M643.312,226.625l0.354,22.084l3.662,-0.006l0.296,-16.078l-4.312,-6Z" style="fill:#2a2b2a;fill-rule:nonzero;"/></g><g transform="matrix(1,0,0,1,0,-12)"><path d="M645.5,229.812l-0.25,10.125l-1.703,1.656l0.109,7.156l3.766,0l0.245,-17.352l-2.167,-1.585Z" style="fill:#f4f2ed;fill-rule:nonzero;"/></g><g transform="matrix(1,0,0,1,0,-12)"><path d="M657.625,233.75l-0.266,15l-4.109,0l0.063,-14.375l4.312,-0.625Z" style="fill:#f4f2ed;fill-rule:nonzero;"/></g><g transform="matrix(1,0,0,1,0,-12)"><path d="M646.813,215.375l-3.5,11.25l5.25,9.875l1.125,15.5l4.124,0l0.75,-16.252l4.833,0l0.5,16.252l3.917,0l3.126,-40.626l-12.25,-0.25l-7.875,4.251Z" style="fill:#2a2b2a;fill-rule:nonzero;"/></g><g transform="matrix(1,0,0,1,0,-12)"><path d="M654.625,211.125l-0.156,13.375l5.968,5.937l5.469,-5.281l1.094,-13.781l-12.375,-0.25Z" style="fill:#f4f2ed;fill-rule:nonzero;"/></g><g transform="matrix(1,0,0,1,0,-12)"><path d="M666.797,206.109l1.789,-2.846l3.398,0.815l-1.218,-3.719l-7.219,0l3.25,5.75Z" style="fill:#2a2b2a;fill-rule:nonzero;"/></g><g transform="matrix(1,0,0,1,0,-12)"><path d="M655.25,206.438l-2.242,-3.158l-3.399,0.814l1.297,-3.687l7.141,-0.031l-2.797,6.062Z" style="fill:#2a2b2a;fill-rule:nonzero;"/></g><g transform="matrix(1,0,0,1,0,-12)"><path d="M657.937,200.375l-4.812,9.531l5.624,5.657l5.125,0l5.376,-5.438l-5.626,-9.75l-5.687,0Z" style="fill:#2a2b2a;fill-rule:nonzero;"/></g></g></g></svg>

<?xml version="1.0" encoding="UTF-8" standalone="no"?>
<!DOCTYPE svg PUBLIC "-//W3C//DTD SVG 1.1//EN" "http://www.w3.org/Graphics/SVG/1.1/DTD/svg11.dtd">
<svg width="100%" height="100%" viewBox="0 0 140 220" version="1.1" xmlns="http://www.w3.org/2000/svg" xmlns:xlink="http://www.w3.org/1999/xlink" xml:space="preserve" xmlns:serif="http://www.serif.com/" style="fill-rule:evenodd;clip-rule:evenodd;stroke-linejoin:round;stroke-miterlimit:2;">
    <g id="people-23" transform="matrix(1.27,0,0,1.27,-744.146,-84.8)">
        <g transform="matrix(1,0,0,1,0,-12)">
            <path d="M660.987,209.8L657.026,211.196L642.022,174.474L645.812,172.375L660.987,209.8Z" style="fill:rgb(193,190,186);fill-rule:nonzero;"/>
        </g>
        <g transform="matrix(1,0,0,1,0,-12)">
            <path d="M611.173,169.83L610.136,175.349L611.564,182.395L614.136,180.951L613.4,174.891L613.57,176.728L615.962,176.134L613.943,171.645L611.173,169.83Z" style="fill:rgb(225,197,181);fill-rule:nonzero;"/>
        </g>
        <g transform="matrix(1,0,0,1,0,-12)">
            <path d="M618.904,137.247L623.702,135.359L634.127,134.953L632.152,126.621L619.464,126.388L618.904,137.247Z" style="fill:rgb(84,62,54);fill-rule:nonzero;"/>
        </g>
        <g transform="matrix(1,0,0,1,0,-12)">
            <path d="M632.616,233.534L633.469,239.729L627.43,239.574L626.965,232.916L632.616,233.534Z" style="fill:rgb(152,138,116);fill-rule:nonzero;"/>
        </g>
        <g transform="matrix(1,0,0,1,0,-12)">
            <path d="M621.584,250.025L622.281,252L627.042,252L628.26,242.999L622.824,241.858L621.584,250.025Z" style="fill:rgb(152,138,116);fill-rule:nonzero;"/>
        </g>
        <g transform="matrix(1,0,0,1,0,-12)">
            <path d="M619.843,135.302L622.397,133.599L624.254,128.334L628.546,129.557L629.907,132.903L632.849,134.373L630.991,140.489L622.243,140.722L619.843,135.302Z" style="fill:rgb(206,171,151);fill-rule:nonzero;"/>
        </g>
        <g transform="matrix(1,0,0,1,0,-12)">
            <path d="M624.164,132.086L628.028,132.086L632.19,126.735L631.446,115.289L624.023,114.049L619.409,115.884L619.558,126.735L624.164,132.086Z" style="fill:rgb(225,197,181);fill-rule:nonzero;"/>
        </g>
        <g transform="matrix(1,0,0,1,0,-12)">
            <path d="M618.257,143.295L613.993,172.057L610.943,170.912L614.746,138.844L618.257,143.295Z" style="fill:rgb(225,197,181);fill-rule:nonzero;"/>
        </g>
        <g transform="matrix(1,0,0,1,0,-12)">
            <path d="M625.28,110.664L633.863,113.372L638.583,136.744L633.719,141.747L633.778,136.173L633.468,134.527L631.977,126.998L630.113,117.497L625.01,115.414L625.28,110.664Z" style="fill:rgb(84,62,54);fill-rule:nonzero;"/>
        </g>
        <g transform="matrix(1,0,0,1,0,-12)">
            <path d="M625.097,115.414L620.075,117.301L619.487,139.497L615.239,138.748L616.071,114.83L625.405,110.58L625.097,115.414Z" style="fill:rgb(84,62,54);fill-rule:nonzero;"/>
        </g>
        <g transform="matrix(1,0,0,1,0,-12)">
            <path d="M627.121,196.063L628.05,242.98L622.862,241.897L618.294,195.908" style="fill:rgb(225,197,181);fill-rule:nonzero;"/>
        </g>
        <g transform="matrix(1,0,0,1,0,-12)">
            <path d="M626.965,179.494L627.121,199.313L627.857,233.148L632.616,233.534L634.94,199.101L626.965,179.494Z" style="fill:rgb(206,171,151);fill-rule:nonzero;"/>
        </g>
        <g transform="matrix(1,0,0,1,0,-12)">
            <path d="M638.579,136.695L632.878,134.343L630.604,139.946L622.552,140.179L619.843,135.185L614.654,138.748L618.139,143.353L619.573,160.75L611.364,200.9L641.211,201.133L633.321,161.25L635.636,140.876L638.579,136.695Z" style="fill:rgb(255,238,204);fill-rule:nonzero;"/>
        </g>
        <g transform="matrix(1,0,0,1,0,-12)">
            <path d="M636.188,140.099L643.235,170.761L646.406,169.859L638.532,136.704L636.188,140.099Z" style="fill:rgb(225,197,181);fill-rule:nonzero;"/>
        </g>
        <g transform="matrix(1,0,0,1,0,-12)">
            <path d="M646.395,169.763L650.963,176.558L649.011,180.292L646.797,174.813L644.276,173.83L643.544,178.174L641.232,176.984L643.266,170.719L646.395,169.763Z" style="fill:rgb(225,197,181);fill-rule:nonzero;"/>
        </g>
        <g transform="matrix(1,0,0,1,0,-12)">
            <path d="M643.312,226.625L643.666,248.709L647.328,248.703L647.624,232.625L643.312,226.625Z" style="fill:rgb(42,43,42);fill-rule:nonzero;"/>
        </g>
        <g transform="matrix(1,0,0,1,0,-12)">
            <path d="M645.5,229.813L645.25,239.938L643.547,241.594L643.656,248.75L647.422,248.75L647.667,231.398L645.5,229.813Z" style="fill:rgb(244,242,237);fill-rule:nonzero;"/>
        </g>
        <g transform="matrix(1,0,0,1,0,-12)">
            <path d="M657.625,233.75L657.359,248.75L653.25,248.75L653.313,234.375L657.625,233.75Z" style="fill:rgb(244,242,237);fill-rule:nonzero;"/>
        </g>
        <g transform="matrix(1,0,0,1,0,-12)">
            <path d="M646.813,215.375L643.313,226.625L648.563,236.5L649.688,252L653.812,252L654.562,235.748L659.395,235.748L659.895,252L663.812,252L666.938,211.374L654.688,211.124L646.813,215.375Z" style="fill:rgb(42,43,42);fill-rule:nonzero;"/>
        </g>
        <g transform="matrix(1,0,0,1,0,-12)">
            <path d="M654.625,211.125L654.469,224.5L660.437,230.437L665.906,225.156L667,211.375L654.625,211.125Z" style="fill:rgb(244,242,237);fill-rule:nonzero;"/>
        </g>
        <g transform="matrix(1,0,0,1,0,-12)">
            <path d="M666.797,206.109L668.586,203.263L671.984,204.078L670.766,200.359L663.547,200.359L666.797,206.109Z" style="fill:rgb(42,43,42);fill-rule:nonzero;"/>
        </g>
        <g transform="matrix(1,0,0,1,0,-12)">
            <path d="M655.25,206.438L653.008,203.28L649.609,204.094L650.906,200.407L658.047,200.375L655.25,206.438Z" style="fill:rgb(42,43,42);fill-rule:nonzero;"/>
        </g>
        <g transform="matrix(1,0,0,1,0,-12)">
            <path d="M657.937,200.375L653.125,209.906L658.749,215.563L663.874,215.563L669.25,210.125L663.624,200.375L657.937,200.375Z" style="fill:rgb(42,43,42);fill-rule:nonzero;"/>
        </g>
    </g>
</svg>
